img/icons/financial/money-alt.svg

<svg xmlns="http://www.w3.org/2000/svg" viewBox="0 0 48 32"><defs><style>.cls-1{fill:#231f20}</style></defs><g id="Layer_2" data-name="Layer 2"><g id="Icons"><g id="Shopping"><g id="Money_-_Alt" data-name="Money - Alt"><path class="cls-1" d="M48 0H6v6H0v26h42v-6h6zm-8 30H2V8h38zm6-6h-4V6H8V2h38z"/><path class="cls-1" d="M21 26a7 7 0 10-7-7 7 7 0 007 7zm0-12a5 5 0 11-5 5 5 5 0 015-5z"/></g></g></g></g></svg>

<svg xmlns="http://www.w3.org/2000/svg" viewBox="0 0 48 32"><defs><style>.cls-1{fill:#231f20;}</style></defs><title>Money - Alt</title><g id="Layer_2" data-name="Layer 2"><g id="Icons"><g id="Shopping"><g id="Money_-_Alt" data-name="Money - Alt"><path class="cls-1" d="M48,0H6V6H0V32H42V26h6ZM40,30H2V8H40Zm6-6H42V6H8V2H46Z"/><path class="cls-1" d="M21,26a7,7,0,1,0-7-7A7,7,0,0,0,21,26Zm0-12a5,5,0,1,1-5,5A5,5,0,0,1,21,14Z"/></g></g></g></g></svg>
